X:1
T:James Gibb editions
T:O vos omnes - Victoria
T:#
%%score [ 1 2 3 4 ]
L:1/8
Q:1/4=108
M:4/4
K:Bb
V:1 treble nm="Soprano" snm="S"
V:2 treble nm="Alto" snm="A"
V:3 treble-8 nm="Tenor" snm="T"
V:4 bass nm="Bass" snm="B"
V:1
"^O vos omnes""^Tomás Luis de Victoria\n(1548-1611)" z8 | G8 | =B4 (c4- | c2 _B2 _A4- | A4) G4- | %5
w: |O|vos om\-||* nes|
 G4 z2 G2- | G2 G2 B4 |[M:4/4] c6 c2 | d8 | G8 | z8 | z2 G2 c4- | c2 c2 c4 | c4 =B4 | c8 | =B4 z4 | %16
w: * qui|* tran- si-|tis per|vi-|am,||at- ten\-|* di- te|et vi-|de-|te,|
 z8 | z4 c4- | c4 _B4 | _A8 | G4 z2 (G2- | G2 FE F2) F2 | G8 | z2 G4 G2 | G2 G2 (_A2 G2- | %25
w: |si|* est|do-|lor si\-|* * * * mi-|lis|si- cut|do- lor me\- *|
 G2 F2)"^," G2 =B2- | B2 =B2 B2 B2 | c8 | _B8 | z2 G4 G2 | G2 G2 _A4- | A4 G4- | G4 z4 | c4 e4- | %34
w: * * us, si\-|* cut do- lor|me-|us,|si- cut|do- lor me\-|* us,||at- ten\-|
 e2 d2 d4- | d4 z2 d2- | d2 d2 d2 d2 | c6 c2 | =B4 z4 | e8 | d4 (c3 d | e4 f4) | B8 | z8 | z4 d4- | %45
w: * di- te|* u\-|* ni- ver- si|po- pu-|li|et|vi- de\- *||te||do\-|
 d4 e4 | d2 (d4 c2) |"^," d2 B4 e2- | e2 c4 (d2- | dc c4 =B2) | c4 z4 | z8 | z4 c4- | c4 B4 | _A8 | %55
w: * lo-|rem me\- *|um, do- lo\-|* rem me\-||um,||si|* est|do-|
 G4 z2 (G2- | G2 FE F2) F2 | G8 | z2 G4 G2 | G2 G2 (_A2 G2- | G2 F2)"^," G2 =B2- | B2 =B2 B2 B2 | %62
w: lor si\-|* * * * mi-|lis|si- cut|do- lor me\- *|* * us, si\-|* cut do- lor|
 c8 | _B8 | z2[Q:1/4=106] G4[Q:1/4=103] G2 |[Q:1/4=101] G2[Q:1/4=100] G2[Q:1/4=97] _A4- | %66
w: me-|us,|si- cut|do- lor me\-|
[Q:1/4=94] A4[Q:1/4=91] G4- |[Q:1/4=90] !fermata!G8 |] %68
w: * us.||
V:2
 z4 C4- | C4 G4- | G4 (E4- | E4 F4- | F4) B,4 | B6 B2 | B4 G2 (B2- |[M:4/4] B2 A4 G2) | F8 | =E8 | %10
w: O|* vos|* om\-||* nes|qui tran-|si- tis per||vi-|am,|
 z4 G4 | G6 G2 | G8 | =A4 G2 (G2- | G2 FE F4) | G4 z4 | z4 G4- | G4 F4 | G8 | C4 (F3 E | %20
w: at-|ten- di-|te|et vi- de\-||te,|si|* est|do-|lor si\- *|
 D2 C4 =B,2 | C6) C2 | D4 z2 D2- | D2 D2 D2 D2 | (E6 D2 | C4) D4 | z2 G4 G2 | G2 G2 (_A4 | %28
w: |* mi-|lis si\-|* cut do- lor|me\- *|* us,|si- cut|do- lor me\-|
 G2 FE F4) |"^," G2 E4 E2 | D2 =E2 F4- | F4 D4- | D4 z4 | z4 G4 | B6 A2 | A8 | B3 B B2 B2 | %37
w: |us, si- cut|do- lor me\-|* us,||at-|ten- di-|te|u- ni- ver- si|
 (_A2 G4) F2 | G4 z4 | G8- | G4 E4- | E4 _A4 | G4 z2 G2 | _A6 G2 | F4 G4 | z2 G2 B4- | B2 _A2 G4 | %47
w: po\- * pu-|li|et|* vi\-|* de-|te do-|lo- rem|me- um,|do- lo\-|* rem me-|
 G4 z2 G2 | E4 _A4 | G8 | =E4 z4 | z4 G4- | G4 F4 | G8 | C4 (F3 E | D2 C4 =B,2 | C6) C2 | %57
w: um, do-|lo- rem|me-|um,|si|* est|do-|lor si\- *||* mi-|
 D4 z2 D2- | D2 D2 D2 D2 | E6 D2 | C4 D4 | z2 G4 G2 | G2 G2 _A4 | G4 F4 | G2 E4 E2 | (D2 =E2 F4- | %66
w: lis si\-|* cut do- lor|me\- *|* us,|si- cut|do- lor me-|us, si-|cut do- lor|me\- * *|
 F2 _E2 D4- | D4) !fermata!=E4 |] %68
w: |* us.|
V:3
 c8 | e8 | (d4 c3 B | cd e4 dc | d4) e4- | e4 d4- | d2 d2 d4 |[M:4/4][K:treble-8] f2 (FG AB c2- | %8
w: O|vos|om\- * *||* nes|* qui|* tran- si-|tis per * * * *|
 c2) (=BA B4) | c8 | z4 d4 | e6 e2 | e8 | f4 d2 (e2- | edcB c4) | d4 z4 | e8 | d4 c4 | d8 | %19
w: * vi\- * *|am,|at-|ten- di-|te|et vi- de\-||te,|si|est do-|lor|
 (f3 e d2) c2 | =B2 (e2 d2 e2- | e2) d2 (c4- | c2 =BA B2) G2- | G2 G2 G2 G2 | (c6 B2 | %25
w: si\- * * mi-|lis, si\- * *|* mi- lis|* * * * si\-|* cut do- lor|me\- *|
 _A4)"^," G2 d2- | d2 d2 d2 d2 | (e3 d e2 f2- | fe e4 d2) | e4 z2 c2- | c2 =B2 c2 c2 | %31
w: * us, si\-|* cut do- lor|me\- * * *||us si\-|* cut do- lor|
 (d2 c4 =BA) | =B4 z4 | z4 c4 | g6 ^f2 | ^f8 | g3 g g2 =f2 | (e3 d c2) c2 | d4 z4 | c8 | %40
w: me\- * * *|us,|at-|ten- di-|te|u- ni- ver- si|po\- * * pu-|li|et|
 =B4 (c3 _B | cd e4 d2) | e4 d4 | e6 d2 | (c6 =BA) | =B2 G2 g4- | g2 f2 e4 |"^," d2 d2 g4 | %48
w: vi- de\- *||te do-|lo- rem|me\- * *|um, do- lo\-|* rem me-|um, do- lo-|
 c4 (f4 | e2 dc d4) | c4 z4 | e8 | d4 c4 | d8 | (f3 e d2) c2 | =B2 (e2 d2 e2- | e2) d2 (c4- | %57
w: rem me\-||um,|si|est do-|lor|si\- * * mi-|lis, si\- * *|* mi- lis|
 c2 =BA"^," B2) G2- | G2 G2 G2 G2 | (c6 B2 | _A4"^," G2 d2- | d2 d2 d2 d2 | (e3 d e2 f2- | %63
w: * * * * si\-|* cut do- lor|me\- *|* us, si\-|* cut do- lor|me\- * * *|
 fe e4 d2) | e4 z2 c2- | c2 =B2 c2 c2 | d2 c4 =BA | =B4) !fermata!c4 |] %68
w: |us, si\-|* cut do- lor|me\- * * *|* us.|
V:4
 z8 | C,8 | G,4 (_A,4- | A,2 G,2 F,4- | F,4) E,4- | E,4 G,4- | G,2 G,2 G,4 |[M:4/4] F,6 E,2 | D,8 | %9
w: |O|vos om\-||* nes|* qui|* tran- si-|tis per|vi-|
 C,8 | z4 G,4 | C6 C2 | C8 | F,4 G,4 | _A,8 | G,4 z4 | C8 | B,4 _A,4 | G,8 | (F,8 | G,8 | %21
w: am,|at-|ten- di-|te|et vi-|de-|te,|si|est do-|lor|si\-||
 _A,6) A,2 | G,8 | z8 | z8 | z4 z2 G,2- | G,2 G,2 G,2 G,2 | (C4 _A,4 | B,8) |"^," E,2 C,4 C,2 | %30
w: * mi-|lis|||si\-|* cut do- lor|me\- *||us, si- cut|
 G,2 G,2 F,4- | F,4 G,4- | G,4 z4 | z8 | G,4 D4- | D2 D2 D4 | G,3 G, G,2 B,2 | (C3 B, _A,2) A,2 | %38
w: do- lor me\-|* us,|||at- ten\-|* di- te|u- ni- ver- si|po\- * * pu-|
 G,4 z4 | C,8 | G,4 (_A,4- | A,2 G,2 F,4) | E,4 G,4 | C6 B,2 | _A,4 G,4- | G,4 z4 | z4 z2 C,2 | %47
w: li|et|vi- de\-||te do-|lo- rem|me- um,||do-|
 G,4 E,4 | (_A,4 F,4 | G,8) | C,4 z4 | C8 | B,4 _A,4 | G,8 | (F,8 | G,8 | _A,6) A,2 | G,8 | z8 | %59
w: lo- rem|me\- *||um,|si|est do-|lor|si\-||* mi-|lis||
 z8 | z4 z2 G,2- | G,2 G,2 G,2 G,2 | (C4 _A,4 | B,8) |"^," E,2 C,4 C,2 | G,2 G,2 (F,4- | F,4 G,4- | %67
w: |si\-|* cut do- lor|me\- *||us, si- cut|do- lor me\-||
 G,4) !fermata!C,4 |] %68
w: * us.|

